X:486
%%etbk:tnset id:205,pos:1,rep:3x,ant:
%%etbk:pldat 2015-01-14T15:47,2015-01-06T18:31,2014-10-16T18:01,2014-08-04T18:01,2014-07-29T17:34,2014-07-26T15:43,2014-04-24T18:45,2014-04-23T15:24,2014-04-22T18:01,2014-04-21T16:19,2014-04-18T12:10,2014-04-16T10:16,2014-04-14T10:08
T: The Galway Girl (Dmaj) 
Z: Piano Box Version by Martin Fleischmann
H: Created 2013-07-08 /  Last Modified 2014-04-18
R: song
M: 4/4
L: 1/8
K:Dmaj
P:A
 !1!DE | "D"!3!F2E2D3E | !3!F2FE!1!D4 | "G"!3!B3!3!B-Bc!5!dc | "D"!3!B2!2!A2!1!F4|
"G"!3!B3B"D"!2!A3A | "A"!1!G!3!F!2!E!1!D "D"!3!F4 | "A"!2!E3!2!E-EF!4!GF | !2!E2!1!D2 "D"D4 |
P:B
|"Sing-a-Long""G"!3!B4B3A| !3!B2c2!5!d4| "D"!2!A3!2!A A!1!G!3!F2 | "A"!1!E8 |  
"G"!3!B3B"D"!2!A3A | "A"!1!G!3!F!2!E!1!D "D"!3!F4 | "A"!2!E3!2!E-EF!4!GF | !2!E2!1!D2 "D"D4 |
|"Zwischennwurf 1" "D"z2!1!A,A, !2!B,!3!D-D>!2!B,| !3!D2z2z2z2|"Zwischenwurf 2" "D"z2!1!A,A, !2!B,!3!D-D>!4!E| !5!FE!3!D2z2z2|
|"Melodie 3. Strophe" "D"!1!DDFA"G"B2|"D"FFED "G"D2|


